images/itch-io.svg

<?xml version="1.0" encoding="UTF-8" standalone="no" ?>
<!DOCTYPE svg PUBLIC "-//W3C//DTD SVG 1.1//EN" "http://www.w3.org/Graphics/SVG/1.1/DTD/svg11.dtd">
<svg xmlns="http://www.w3.org/2000/svg" xmlns:xlink="http://www.w3.org/1999/xlink" version="1.1" width="200" height="200" viewBox="0 0 200 200" xml:space="preserve">
<desc>Created with Fabric.js 5.2.4</desc>
<defs>
</defs>
<rect x="0" y="0" width="100%" height="100%" fill="transparent"></rect>
<g transform="matrix(1 0 0 1 100 100)" id="2ef48044-42b2-4a2e-a3bf-0d30b6ac552c"  >
<rect style="stroke: none; stroke-width: 1; stroke-dasharray: none; stroke-linecap: butt; stroke-dashoffset: 0; stroke-linejoin: miter; stroke-miterlimit: 4; fill: rgb(255,255,255); fill-rule: nonzero; opacity: 1; visibility: hidden;" vector-effect="non-scaling-stroke"  x="-100" y="-100" rx="0" ry="0" width="200" height="200" />
</g>
<g transform="matrix(0 0 0 0 0 0)" id="cea4c500-8a54-4444-b39d-ce528a289578"  >
</g>
<g transform="matrix(6.14 0 0 6.14 100 100)"  >
<path style="stroke: rgb(0,0,0); stroke-width: 0; stroke-dasharray: none; stroke-linecap: butt; stroke-dashoffset: 0; stroke-linejoin: miter; stroke-miterlimit: 4; fill: rgb(255,255,255); fill-rule: nonzero; opacity: 1;" vector-effect="non-scaling-stroke"  transform=" translate(-16, -16)" d="M 4.172 1.787 C 2.776 2.6149999999999998 0.027000000000000135 5.771 0 6.599 L 0 7.974 C 0 9.709 1.625 11.241 3.099 11.241 C 4.87 11.241 6.35 9.772 6.35 8.027999999999999 C 6.35 9.771999999999998 7.771 11.241 9.547 11.241 C 11.318000000000001 11.241 12.698 9.772 12.698 8.027999999999999 C 12.698 9.771999999999998 14.214 11.241 15.985 11.241 L 16.017 11.241 C 17.793 11.241 19.308 9.772 19.308 8.027999999999999 C 19.308 9.771999999999998 20.689 11.241 22.46 11.241 C 24.231 11.241 25.657 9.772 25.657 8.027999999999999 C 25.657 9.771999999999998 27.132 11.241 28.902 11.241 C 30.381 11.241 32.006 9.709 32.006 7.974 L 32.006 6.599 C 31.974 5.771 29.23 2.615 27.829 1.787 C 23.490000000000002 1.631 20.485 1.6039999999999999 16.006 1.6039999999999999 C 11.522 1.6089999999999998 5.413 1.6769999999999998 4.178000000000001 1.787 z M 12.677 10.421 C 12.494 10.729 12.292 10.988999999999999 12.052 11.218 L 12.052 11.223 C 11.379999999999999 11.874 10.463999999999999 12.280000000000001 9.453 12.280000000000001 C 8.437 12.280000000000001 7.520999999999999 11.873000000000001 6.853999999999999 11.217 C 6.608999999999999 10.982000000000001 6.425999999999999 10.728 6.254 10.43 C 6.087 10.727 5.853999999999999 10.982 5.609 11.217 C 4.937 11.873000000000001 4.021 12.280000000000001 3.01 12.280000000000001 C 3.01 12.280000000000001 3.01 12.280000000000001 3.005 12.280000000000001 C 2.885 12.280000000000001 2.76 12.244000000000002 2.6559999999999997 12.207 C 2.5159999999999996 13.692 2.453 15.108 2.4319999999999995 16.144000000000002 L 2.4319999999999995 16.149 C 2.4269999999999996 16.676000000000002 2.4269999999999996 17.102 2.4209999999999994 17.701 C 2.4529999999999994 20.816000000000003 2.1139999999999994 27.79 3.7969999999999993 29.504 C 6.401 30.108 11.193 30.384 15.993999999999998 30.389000000000003 L 15.998999999999999 30.389000000000003 C 20.805999999999997 30.384000000000004 25.592 30.108000000000004 28.195999999999998 29.504 C 29.878999999999998 27.791 29.54 20.816000000000003 29.572 17.701 C 29.567 17.102 29.567 16.676000000000002 29.561 16.149 L 29.561 16.144000000000002 C 29.54 15.108000000000002 29.482 13.692000000000002 29.337 12.207000000000003 C 29.238 12.244000000000003 29.108 12.280000000000003 28.988 12.280000000000003 C 28.988 12.280000000000003 28.983 12.280000000000003 28.983 12.280000000000003 C 27.972 12.280000000000003 27.056 11.873000000000003 26.384 11.217000000000002 L 26.389 11.217000000000002 C 26.144 10.982000000000003 25.91 10.728000000000002 25.744 10.430000000000001 L 25.739 10.430000000000001 C 25.572 10.727000000000002 25.384 10.982000000000001 25.144000000000002 11.217000000000002 C 24.477 11.873000000000003 23.561000000000003 12.280000000000003 22.545 12.280000000000003 C 21.534000000000002 12.280000000000003 20.618000000000002 11.873000000000003 19.946 11.217000000000002 C 19.706000000000003 10.988000000000003 19.503 10.722000000000003 19.331000000000003 10.430000000000001 L 19.320000000000004 10.414000000000001 C 19.148000000000003 10.722000000000001 18.940000000000005 10.987000000000002 18.705000000000005 11.217000000000002 C 18.033000000000005 11.873000000000003 17.117000000000004 12.280000000000003 16.106000000000005 12.280000000000003 C 16.106000000000005 12.280000000000003 16.101000000000006 12.280000000000003 16.101000000000006 12.280000000000003 C 16.070000000000007 12.280000000000003 16.033000000000005 12.280000000000003 15.997000000000007 12.275000000000002 C 15.961000000000007 12.280000000000003 15.924000000000007 12.280000000000003 15.888000000000007 12.280000000000003 C 15.888000000000007 12.280000000000003 15.888000000000007 12.280000000000003 15.883000000000006 12.280000000000003 C 14.872000000000007 12.280000000000003 13.956000000000007 11.873000000000003 13.290000000000006 11.217000000000002 C 13.050000000000006 10.988000000000003 12.847000000000007 10.722000000000003 12.681000000000006 10.430000000000001 L 12.670000000000007 10.414000000000001 z M 10.005 13.875 C 11.062000000000001 13.88 12 13.875 13.166 15.146 C 14.082 15.053 15.041 15.006 15.999 15.006 C 16.957 15.006 17.916 15.053 18.832 15.146 C 19.999000000000002 13.875 20.936 13.875 21.993000000000002 13.875 L 21.998 13.875 C 22.498 13.875 24.498 13.875 25.889000000000003 17.787 L 27.384000000000004 23.156 C 28.493000000000002 27.151 27.029000000000003 27.250999999999998 25.207000000000004 27.250999999999998 C 22.499000000000002 27.150999999999996 20.999000000000002 25.182999999999996 20.999000000000002 23.214 C 19.499000000000002 23.465 17.748 23.584999999999997 15.999000000000002 23.584999999999997 C 14.250000000000004 23.584999999999997 12.499000000000002 23.464999999999996 11.004000000000001 23.214 C 11.004000000000001 25.183 9.504000000000001 27.151 6.796000000000001 27.250999999999998 C 4.968000000000001 27.246 3.5040000000000013 27.150999999999996 4.613000000000001 23.156 L 6.108000000000001 17.787 C 7.504000000000001 13.875 9.504000000000001 13.875 10.004000000000001 13.875 z M 16 16.953 C 15.995 16.953 13.151 19.573 12.636 20.5 L 14.5 20.427 L 14.5 22.052 C 14.5 22.131 15.251 22.099 16 22.063 C 16.749 22.099 17.495 22.131 17.495 22.052 L 17.495 20.427 L 19.364 20.5 C 18.849 19.573 16 16.953 16 16.953 z" stroke-linecap="round" />
</g>
</svg>

<?xml version="1.0" encoding="utf-8"?>
<svg fill="#000000" width="800px" height="800px" viewBox="0 0 32 32" xmlns="http://www.w3.org/2000/svg">
  <path d="M4.172 1.787c-1.396 0.828-4.145 3.984-4.172 4.812v1.375c0 1.735 1.625 3.267 3.099 3.267 1.771 0 3.251-1.469 3.251-3.213 0 1.744 1.421 3.213 3.197 3.213 1.771 0 3.151-1.469 3.151-3.213 0 1.744 1.516 3.213 3.287 3.213h0.032c1.776 0 3.291-1.469 3.291-3.213 0 1.744 1.381 3.213 3.152 3.213s3.197-1.469 3.197-3.213c0 1.744 1.475 3.213 3.245 3.213 1.479 0 3.104-1.532 3.104-3.267v-1.375c-0.032-0.828-2.776-3.984-4.177-4.812-4.339-0.156-7.344-0.183-11.823-0.183-4.484 0.005-10.593 0.073-11.828 0.183zM12.677 10.421c-0.183 0.308-0.385 0.568-0.625 0.797v0.005c-0.672 0.651-1.588 1.057-2.599 1.057-1.016 0-1.932-0.407-2.599-1.063-0.245-0.235-0.428-0.489-0.6-0.787-0.167 0.297-0.4 0.552-0.645 0.787-0.672 0.656-1.588 1.063-2.599 1.063 0 0 0 0-0.005 0-0.12 0-0.245-0.036-0.349-0.073-0.14 1.485-0.203 2.901-0.224 3.937v0.005c-0.005 0.527-0.005 0.953-0.011 1.552 0.032 3.115-0.307 10.089 1.376 11.803 2.604 0.604 7.396 0.88 12.197 0.885h0.005c4.807-0.005 9.593-0.281 12.197-0.885 1.683-1.713 1.344-8.688 1.376-11.803-0.005-0.599-0.005-1.025-0.011-1.552v-0.005c-0.021-1.036-0.079-2.452-0.224-3.937-0.099 0.037-0.229 0.073-0.349 0.073 0 0-0.005 0-0.005 0-1.011 0-1.927-0.407-2.599-1.063h0.005c-0.245-0.235-0.479-0.489-0.645-0.787h-0.005c-0.167 0.297-0.355 0.552-0.595 0.787-0.667 0.656-1.583 1.063-2.599 1.063-1.011 0-1.927-0.407-2.599-1.063-0.24-0.229-0.443-0.495-0.615-0.787l-0.011-0.016c-0.172 0.308-0.38 0.573-0.615 0.803-0.672 0.656-1.588 1.063-2.599 1.063 0 0-0.005 0-0.005 0-0.031 0-0.068 0-0.104-0.005-0.036 0.005-0.073 0.005-0.109 0.005 0 0 0 0-0.005 0-1.011 0-1.927-0.407-2.593-1.063-0.24-0.229-0.443-0.495-0.609-0.787l-0.011-0.016zM10.005 13.875c1.057 0.005 1.995 0 3.161 1.271 0.916-0.093 1.875-0.14 2.833-0.14s1.917 0.047 2.833 0.14c1.167-1.271 2.104-1.271 3.161-1.271h0.005c0.5 0 2.5 0 3.891 3.912l1.495 5.369c1.109 3.995-0.355 4.095-2.177 4.095-2.708-0.1-4.208-2.068-4.208-4.037-1.5 0.251-3.251 0.371-5 0.371s-3.5-0.12-4.995-0.371c0 1.969-1.5 3.937-4.208 4.037-1.828-0.005-3.292-0.1-2.183-4.095l1.495-5.369c1.396-3.912 3.396-3.912 3.896-3.912zM16 16.953c-0.005 0-2.849 2.62-3.364 3.547l1.864-0.073v1.625c0 0.079 0.751 0.047 1.5 0.011 0.749 0.036 1.495 0.068 1.495-0.011v-1.625l1.869 0.073c-0.515-0.927-3.364-3.547-3.364-3.547z"/>
</svg>
